resources/haticons/SVG/message.svg

<!-- Generated by IcoMoon.io -->
<svg version="1.1" xmlns="http://www.w3.org/2000/svg" width="24" height="24" viewBox="0 0 24 24">
<title>message</title>
<path d="M21.9 19.125h-17.025l-4.875 4.875v-21.975c0-1.125 0.9-2.025 2.1-2.025h19.8c1.2 0 2.1 0.9 2.1 2.1v14.925c0 1.2-0.9 2.1-2.1 2.1zM8.7 8.325h-2.775v2.775h2.775v-2.775zM13.575 8.325h-2.775v2.775h2.775v-2.775zM18.45 8.325h-2.775v2.775h2.775v-2.775z"></path>
</svg>

<svg xmlns="http://www.w3.org/2000/svg" width="24" height="24"><path d="M21.9 19.125H4.875L0 24V2.025C0 .9.9 0 2.1 0h19.8c1.2 0 2.1.9 2.1 2.1v14.925c0 1.2-.9 2.1-2.1 2.1zM8.7 8.325H5.925V11.1H8.7V8.325zm4.875 0H10.8V11.1h2.775V8.325zm4.875 0h-2.775V11.1h2.775V8.325z"/></svg>
